X: 7858
T:Speed the Plough
R:Reel
O:England
O:Ireland
O:Scotland
M:4/4
A:Northumbria
K:A
E2|\
A2Ac efec|efec eaec|dfdB cecA\
|1 BdBA GEFG :|2 BdBG A2::
(3efg|\
a2ag aece|aA gA fA eA|dfdB cecA\
|1 BdBA GEfg :|2 BdBG A2|]
